X:67
T:Louisiana Wedding
R:reel
C:Paul S. Cranford
O:Cape Breton Island
S:http://www.cranfordpub.com
D:currently unrecorded
N:written for fiddler-luthier Anya Schoenegge on the day of her marriage
B:currently unpublished in book form
Z:psc
H:                                                        copyrights Cranford Publications, SOCAN
L:1/8
Q:333
M:C|
K:G
Bc|d2 ge d(B ~B2)|(3(ABA) GA B(E ~E2)|(3(DED) CE DB,DE|GABG A(E ~E2)|
d2 ge deBd|ABGA B(E ~E2)|(3(DED) CE DEGB|AGBA  G2:|
|:AB|c2 ec d(B ~B2)|fgaf g(B ~B2)|c2 ec dBGB|[1(3(ABA) GE D2 AB|
cBce dBgB|fgaf g2ba|gecA d(B ~B2)|(3(ABA) BA G2:|
[2(3(ABA) GE D2 B,A,|G,2 B,D ECEG|FAce (dB ~B2)|gecA dBGB|(3(ABA) BA G2|]
